X:4589
T:Never Mind It. HSJJ.079
O:england
M:2/4
L:1/8
Q:300
S:HSJ Jackson,Wyresdale,Lancs.1823
R:Misc.
A:Lancashire
H:1823
K:G
GBBB|dcA2|FAAA|B2G2|GBBB|dcA2|FAAA|G2"fine"G2:|
|dggg|^dec2|Addd|^ABG2|dgfg|b2ag|fed^c|d2d2|]


